X:9
T:Lark In The Morning, The
M:6/8
L:1/8
R:jig
Z:Jaya R. Carl, March 10, 2004
K:Dmaj
|:"D"AFA AFA|"G"BGB BGB|"D"AFA Ade|"G"fed "A"B/2c/2dB|
"D"AFA AFA|"G"B2B BGB|"Bm"def afe|"G"fdB BAF:|
|:"D"def afa|"G"baf "D"afe|"D"def afe|"Bm"fdB "G"BAB|
"D"def afa|"G"baf "D"a2f|"G"gfg "D"fef|"A"edB BAB:|
|:"D"d2f fef|fef fef|"D"d2f fef|"G"edB BAB|
"D"d2f fef|fef fed|"G"gfg "D"fef|"A"edB BAB:|
|:"D"Add fdd|edd fdd|"D"Add fdd|"G"edB BAF|
"D"Add fdd|ede fed|"G"gfg "D"fef|"A"edB BAB:|
